; generated by PrusaSlicer 2.7.1+MacOS-x64 on 2023-12-27 at 19:54:10 UTC

; 

; external perimeters extrusion width = 0.60mm
; perimeters extrusion width = 0.50mm
; infill extrusion width = 0.50mm
; solid infill extrusion width = 0.50mm
; top infill extrusion width = 0.45mm
; support material extrusion width = 0.38mm
; first layer extrusion width = 0.42mm

M73 P0 R21
M73 Q0 S21

; printing object IR-Sensor-Holder.stl id:0 copy 0
; stop printing object IR-Sensor-Holder.stl id:0 copy 0

;TYPE:Custom
M862.3 P "MK3S" ; printer model check
M862.1 P0.4 ; nozzle diameter check
M115 U3.10.0 ; tell printer latest fw version
G90 ; use absolute coordinates
M83 ; extruder relative mode
M104 S215 ; set extruder temp
M140 S60 ; set bed temp
M190 S60 ; wait for bed temp
M109 S215 ; wait for extruder temp
G28 W ; home all without mesh bed level
G80 ; mesh bed leveling
G1 Z0.2 F720
G1 Y-3 F1000 ; go outside print area
G92 E0
G1 X60 E9 F1000 ; intro line
G1 X100 E12.5 F1000 ; intro line
G92 E0
M221 S95

; Don't change E values below. Excessive value can damage the printer.

M907 E538 ; set extruder motor current
G21 ; set units to millimeters
G90 ; use absolute coordinates
M83 ; use relative distances for extrusion
M900 K0.05 ; Filament gcode LA 1.5
M900 K30 ; Filament gcode LA 1.0
M107
;LAYER_CHANGE
;Z:0.2
;HEIGHT:0.2
;BEFORE_LAYER_CHANGE
G92 E0.0
;0.2


G1 E-.8 F2100
G1 Z.2 F720
;AFTER_LAYER_CHANGE
;0.2
G1 X108.897 Y90.02 F10800
G1 Z.2 F720
G1 E.8 F2100
M204 S800
;TYPE:Skirt/Brim
;WIDTH:0.42
G1 F1200
G1 X111.854 Y86.452 E.1453
G1 X112.773 Y85.504 E.0414
G1 X113.38 Y85.037 E.02401
G1 X120.626 Y81.217 E.25683
G1 X122.197 Y80.7 E.05186
G1 X123.335 Y80.513 E.03616
G1 X124.989 Y80.499 E.05186
G1 X126.618 Y80.785 E.05186
G1 X128.298 Y81.42 E.05631
G1 X135.078 Y84.58 E.23454
G1 X136.439 Y85.463 E.05087
G1 X136.904 Y85.862 E.01921
G1 X139.898 Y89.081 E.13784
G1 X140.638 Y89.966 E.03617
G1 X141.042 Y90.615 E.02397
G1 X141.521 Y91.693 E.03699
G1 X141.731 Y92.428 E.02397
G1 X141.894 Y93.592 E.03685
G1 X141.895 Y94.35 E.02377
G1 X141.727 Y95.546 E.03787
G1 X134.506 Y119.583 E.78694
G1 X133.721 Y120.827 E.04612
G1 X131.853 Y121.542 E.06271
G1 X117.353 Y121.456 E.45465
G1 X115.938 Y121.055 E.04611
G1 X114.725 Y119.47 E.06258
G1 X107.994 Y96.297 E.7566
G1 X107.645 Y94.459 E.05866
M73 P1 R20
M73 Q1 S21
G1 X107.712 Y93 E.04579
G1 X108.115 Y91.481 E.04927
G1 X108.869 Y90.073 E.05008
M204 S1000
G1 X109.201 Y90.251 F10800
M204 S800
G1 F1200
G1 X109.219 Y90.216 E.00123
G1 X112.143 Y86.695 E.1435
G1 X113.043 Y85.768 E.04051
G1 X113.566 Y85.365 E.0207
G1 X120.754 Y81.572 E.25483
G1 X122.258 Y81.072 E.04969
M73 Q1 S20
G1 X123.396 Y80.885 E.03616
G1 X124.981 Y80.876 E.0497
G1 X126.542 Y81.155 E.04972
G1 X128.139 Y81.762 E.05357
G1 X134.919 Y84.922 E.23454
G1 X136.226 Y85.775 E.04894
G1 X136.628 Y86.119 E.01659
G1 X139.609 Y89.323 E.13722
G1 X140.349 Y90.207 E.03615
G1 X140.697 Y90.768 E.0207
G1 X141.176 Y91.846 E.03699
G1 X141.357 Y92.48 E.02067
G1 X141.52 Y93.645 E.03688
G1 X141.521 Y94.298 E.02047
G1 X141.353 Y95.492 E.03781
G1 X134.145 Y119.474 E.78517
G1 X133.393 Y120.612 E.04277
G1 X131.855 Y121.165 E.05125
G1 X117.356 Y121.079 E.45461
G1 X116.051 Y120.68 E.04279
G1 X115.087 Y119.365 E.05112
G1 X108.357 Y96.192 E.75659
G1 X108.022 Y94.459 E.05534
G1 X108.08 Y93.082 E.04321
G1 X108.457 Y91.638 E.04679
G1 X109.172 Y90.304 E.04746
M204 S1000
; printing object IR-Sensor-Holder.stl id:0 copy 0
;WIPE_START
G1 F8640
G1 X109.201 Y90.251 E-.01395
G1 X109.219 Y90.216 E-.00909
G1 X111.369 Y87.627 E-.77696
;WIPE_END
G1 Z.6 F720
G1 X124.935 Y83.253 F10800
G1 Z.2 F720
G1 E.8 F2100
M204 S800
;TYPE:Support material
G1 F1200
G1 X126.065 Y83.484 E.03616
G1 X127.135 Y83.916 E.03618
G1 X128.108 Y84.536 E.03617
G1 X128.952 Y85.321 E.03614
G1 X129.64 Y86.247 E.03617
G1 X130.086 Y87.155 E.03172
G1 X130.471 Y86.937 E.01387
G1 X131.561 Y86.672 E.03517
G1 X132.832 Y86.719 E.03988
G1 X133.914 Y87.076 E.03572
G1 X134.889 Y87.74 E.03699
G1 X135.635 Y88.635 E.03653
G1 X136.122 Y89.733 E.03766
G1 X136.153 Y89.955 E.00703
G1 X136.755 Y90.153 E.01987
G1 X137.785 Y90.847 E.03894
G1 X138.525 Y91.732 E.03617
G1 X139.003 Y92.81 E.03697
G1 X139.166 Y93.975 E.03688
G1 X139.001 Y95.152 E.03726
G1 X138.524 Y96.225 E.03682
G1 X137.912 Y96.957 E.02992
G1 X137.752 Y98.018 E.03364
G1 X137.217 Y99.129 E.03866
G1 X136.378 Y100.033 E.03867
G1 X135.31 Y100.649 E.03866
G1 X134.108 Y100.924 E.03866
G1 X132.879 Y100.832 E.03864
G1 X132.546 Y100.701 E.01122
G1 X132.588 Y93.555 E.22406
G1 X132.256 Y93.219 E.01481
G1 X117.284 Y93.131 E.46944
G1 X116.948 Y93.463 E.01481
G1 X116.906 Y100.612 E.22416
G1 X116.004 Y100.817 E.029
G1 X114.776 Y100.724 E.03861
G1 X113.629 Y100.272 E.03866
G1 X112.668 Y99.503 E.03859
G1 X111.974 Y98.482 E.03871
G1 X111.612 Y97.308 E.03852
G1 X111.612 Y96.978 E.01035
G1 X111.203 Y96.563 E.01827
G1 X110.639 Y95.529 E.03693
G1 X110.399 Y94.459 E.03438
G1 X110.399 Y93.603 E.02684
G1 X110.618 Y92.629 E.0313
G1 X111.25 Y91.451 E.04192
G1 X112.029 Y90.66 E.03481
G1 X113.161 Y90.054 E.04026
G1 X113.586 Y88.843 E.04024
G1 X113.963 Y88.224 E.02272
G1 X114.74 Y87.432 E.03479
G1 X115.765 Y86.85 E.03696
G1 X116.855 Y86.586 E.03516
G1 X118.127 Y86.632 E.03991
G1 X118.569 Y86.778 E.0146
G1 X118.967 Y86.041 E.02626
G1 X119.665 Y85.173 E.03492
G1 X120.609 Y84.363 E.039
G1 X121.559 Y83.809 E.03448
G1 X122.644 Y83.418 E.03616
G1 X123.782 Y83.23 E.03616
G1 X124.879 Y83.251 E.0344
M204 S1000
G1 X138.59 Y95.658 F10800
M204 S800
G1 F1200
G1 X138.59 Y92.716 E.09224
G1 X138.171 Y91.838 E.0305
G1 X138.171 Y96.118 E.1342
G1 X137.752 Y96.619 E.02048
G1 X137.752 Y91.337 E.16561
G1 X137.333 Y90.944 E.01801
M73 Q2 S20
G1 X137.333 Y98.105 E.22453
G1 X136.914 Y98.956 E.02974
M73 P2 R20
G1 X136.914 Y90.657 E.26021
G1 X136.495 Y90.425 E.01502
G1 X136.495 Y99.408 E.28166
G1 X136.076 Y99.815 E.01832
G1 X136.076 Y90.287 E.29874
G1 X135.846 Y90.211 E.00759
G1 X135.657 Y89.514 E.02264
G1 X135.657 Y100.057 E.33057
G1 X135.238 Y100.299 E.01517
G1 X135.238 Y88.689 E.36402
G1 X134.819 Y88.186 E.02053
G1 X134.819 Y100.413 E.38337
G1 X134.4 Y100.509 E.01348
G1 X134.4 Y87.818 E.39792
G1 X133.981 Y87.533 E.01589
G1 X133.981 Y100.574 E.40889
G1 X133.562 Y100.542 E.01318
G1 X133.562 Y87.318 E.41463
G1 X133.143 Y87.179 E.01384
G1 X133.143 Y100.511 E.41802
G1 X132.887 Y100.47 E.00813
G1 X132.928 Y93.417 E.22115
G1 X132.724 Y93.21 E.00911
G1 X132.724 Y87.052 E.19308
G1 X132.306 Y87.023 E.01314
G1 X132.306 Y92.88 E.18364
G1 X131.887 Y92.878 E.01314
G1 X131.887 Y87.012 E.18392
G1 X131.468 Y87.044 E.01318
G1 X131.468 Y92.875 E.18283
G1 X131.049 Y92.873 E.01314
G1 X131.049 Y87.146 E.17957
G1 X130.63 Y87.247 E.01351
G1 X130.63 Y92.87 E.17631
G1 X130.211 Y92.868 E.01314
G1 X130.211 Y87.474 E.16913
G1 X129.94 Y87.628 E.00977
G1 X129.792 Y87.327 E.01052
G1 X129.792 Y92.865 E.17364
G1 X129.373 Y92.863 E.01314
G1 X129.373 Y86.473 E.20035
G1 X128.954 Y85.893 E.02243
G1 X128.954 Y92.861 E.21848
G1 X128.535 Y92.858 E.01314
G1 X128.535 Y85.397 E.23393
G1 X128.116 Y85.007 E.01795
G1 X128.116 Y92.856 E.2461
G1 X127.697 Y92.853 E.01314
G1 X127.697 Y84.676 E.25638
G1 X127.278 Y84.41 E.01556
G1 X127.278 Y92.851 E.26466
G1 X126.859 Y92.848 E.01314
G1 X126.859 Y84.171 E.27206
G1 X126.44 Y84.001 E.01418
G1 X126.44 Y92.846 E.27733
G1 X126.021 Y92.843 E.01314
M73 P3 R20
M73 Q3 S20
G1 X126.021 Y83.832 E.28253
G1 X125.602 Y83.735 E.01348
G1 X125.602 Y92.841 E.28551
G1 X125.183 Y92.838 E.01314
G1 X125.183 Y83.65 E.28808
G1 X124.898 Y83.591 E.00913
G1 X124.764 Y83.589 E.0042
G1 X124.764 Y92.836 E.28993
G1 X124.345 Y92.833 E.01314
G1 X124.345 Y83.581 E.29009
G1 X123.926 Y83.573 E.01314
G1 X123.926 Y92.831 E.29028
G1 X123.507 Y92.828 E.01314
G1 X123.507 Y83.62 E.28871
G1 X123.088 Y83.689 E.01331
G1 X123.088 Y92.826 E.28648
G1 X122.669 Y92.823 E.01314
G1 X122.669 Y83.77 E.28385
G1 X122.25 Y83.921 E.01396
G1 X122.25 Y92.821 E.27905
G1 X121.831 Y92.819 E.01314
G1 X121.831 Y84.071 E.27429
G1 X121.412 Y84.288 E.01479
G1 X121.412 Y92.816 E.26739
G1 X120.993 Y92.814 E.01314
G1 X120.993 Y84.532 E.25968
G1 X120.574 Y84.825 E.01603
G1 X120.574 Y92.811 E.2504
G1 X120.155 Y92.809 E.01314
G1 X120.155 Y85.185 E.23905
G1 X119.736 Y85.626 E.01907
G1 X119.736 Y92.806 E.22512
G1 X119.317 Y92.804 E.01314
G1 X119.317 Y86.147 E.20873
G1 X118.898 Y86.882 E.02653
G1 X118.898 Y92.801 E.18559
G1 X118.479 Y92.799 E.01314
G1 X118.479 Y87.106 E.1785
G1 X118.06 Y86.968 E.01383
G1 X118.06 Y92.796 E.18273
G1 X117.641 Y92.794 E.01314
G1 X117.641 Y86.939 E.18358
G1 X117.222 Y86.925 E.01314
G1 X117.222 Y92.791 E.18392
G1 X116.803 Y93.129 E.01688
G1 X116.803 Y86.947 E.19383
G1 X116.384 Y87.049 E.01352
G1 X116.384 Y100.383 E.41808
G1 X115.965 Y100.474 E.01344
G1 X115.965 Y87.151 E.41773
G1 X115.546 Y87.364 E.01474
G1 X115.546 Y100.442 E.41005
G1 X115.127 Y100.41 E.01318
G1 X115.127 Y87.602 E.40159
G1 X114.708 Y87.949 E.01706
M73 P4 R20
M73 Q4 S20
G1 X114.708 Y100.332 E.38826
G1 X114.289 Y100.167 E.01412
G1 X114.289 Y88.376 E.3697
G1 X113.871 Y89.038 E.02455
G1 X113.871 Y100.002 E.34377
G1 X113.452 Y99.695 E.01629
G1 X113.452 Y90.275 E.29536
G1 X113.033 Y90.482 E.01465
G1 X113.033 Y99.36 E.27836
G1 X112.614 Y98.821 E.02141
G1 X112.614 Y90.719 E.25403
G1 X112.195 Y90.976 E.01541
G1 X112.195 Y98.047 E.22171
G1 X111.951 Y97.257 E.02592
G1 X111.951 Y96.839 E.01311
G1 X111.776 Y96.661 E.00783
G1 X111.776 Y91.401 E.16492
G1 X111.357 Y91.93 E.02116
G1 X111.357 Y96.136 E.13188
G1 X110.938 Y95.308 E.0291
G1 X110.938 Y92.339 E.09309
M204 S1000
;WIPE_START
G1 F8640
G1 X110.938 Y95.308 E-.68555
G1 X111.162 Y95.75 E-.11445
;WIPE_END
G1 Z.6 F720
G1 X118.299 Y94.494 F10800
G1 Z.2 F720
G1 E.8 F2100
M204 S800
;TYPE:Perimeter
;WIDTH:0.419999
G1 F1200
G1 X131.225 Y94.57 E.40529
G1 X131.187 Y101.033 E.20265
G1 X131.087 Y117.996 E.53187
G1 X118.161 Y117.92 E.40529
G1 X118.299 Y94.554 E.73264
M204 S1000
G1 X117.925 Y94.115 F10800
M204 S800
;TYPE:External perimeter
G1 F1200
G1 X131.604 Y94.196 E.4289
G1 X131.564 Y101.035 E.21444
G1 X131.462 Y118.375 E.54369
G1 X117.782 Y118.294 E.42893
G1 X117.924 Y94.175 E.75625
M204 S1000
;WIPE_START
G1 F8640
M73 Q5 S20
G1 X117.925 Y94.115 E-.01386
G1 X121.33 Y94.135 E-.78614
;WIPE_END
G1 Z.6 F720
M73 P5 R20
G1 X124.673 Y109.971 F10800
G1 Z.2 F720
G1 E.8 F2100
M204 S800
;TYPE:Perimeter
G1 F1200
G1 X125.282 Y110.048 E.01925
G1 X125.921 Y110.356 E.02224
G1 X126.432 Y110.851 E.02231
G1 X126.765 Y111.476 E.0222
G1 X126.894 Y112.171 E.02216
G1 X126.808 Y112.876 E.02227
G1 X126.516 Y113.517 E.02209
G1 X126.043 Y114.041 E.02213
G1 X125.429 Y114.392 E.02218
G1 X124.736 Y114.531 E.02216
G1 X124.032 Y114.441 E.02225
G1 X123.395 Y114.134 E.02217
G1 X122.884 Y113.639 E.02231
G1 X122.551 Y113.013 E.02223
G1 X122.422 Y112.317 E.02219
G1 X122.508 Y111.616 E.02214
G1 X122.799 Y110.973 E.02213
G1 X123.272 Y110.449 E.02213
G1 X123.887 Y110.098 E.0222
G1 X124.58 Y109.96 E.02216
G1 X124.613 Y109.964 E.00104
M204 S1000
G1 X124.639 Y110.332 F10800
M204 S800
;TYPE:External perimeter
G1 F1200
G1 X125.219 Y110.42 E.01839
G1 X125.743 Y110.689 E.01847
G1 X126.159 Y111.111 E.01858
G1 X126.425 Y111.641 E.01859
G1 X126.521 Y112.227 E.01862
G1 X126.435 Y112.816 E.01866
G1 X126.179 Y113.349 E.01854
G1 X125.773 Y113.778 E.01852
G1 X125.255 Y114.057 E.01845
G1 X124.677 Y114.159 E.0184
G1 X124.096 Y114.069 E.01843
G1 X123.572 Y113.801 E.01845
G1 X123.157 Y113.379 E.01856
G1 X122.89 Y112.849 E.01861
G1 X122.795 Y112.262 E.01864
G1 X122.88 Y111.675 E.0186
G1 X123.137 Y111.141 E.01858
G1 X123.542 Y110.712 E.0185
G1 X124.061 Y110.433 E.01848
G1 X124.58 Y110.343 E.01652
M204 S1000
;WIPE_START
G1 F8640
G1 X124.639 Y110.332 E-.01386
G1 X125.219 Y110.42 E-.13546
G1 X125.743 Y110.689 E-.136
G1 X126.159 Y111.111 E-.13683
G1 X126.425 Y111.641 E-.13693
G1 X126.521 Y112.227 E-.13711
G1 X126.456 Y112.672 E-.10381
;WIPE_END
G1 Z.6 F720
G1 X130.338 Y94.678 F10800
G1 Z.2 F720
G1 E.8 F2100
M204 S800
;TYPE:Solid infill
;WIDTH:0.423236
G1 F1200
G1 X130.938 Y95.279 E.02686
G1 X130.935 Y95.814 E.01692
G1 X129.967 Y94.846 E.04329
G1 X129.426 Y94.843 E.01711
G1 X130.932 Y96.348 E.06733
G1 X130.929 Y96.883 E.01692
G1 X128.885 Y94.839 E.09141
G1 X128.344 Y94.836 E.01711
G1 X130.925 Y97.418 E.11545
G1 X130.922 Y97.952 E.01689
G1 X127.803 Y94.833 E.13949
G1 X127.262 Y94.83 E.01711
G1 X130.919 Y98.487 E.16355
G1 X130.916 Y99.022 E.01692
G1 X126.721 Y94.827 E.18761
G1 X126.18 Y94.823 E.01711
G1 X130.913 Y99.556 E.21167
G1 X130.91 Y100.091 E.01692
G1 X125.639 Y94.82 E.23573
G1 X125.098 Y94.817 E.01711
G1 X130.907 Y100.626 E.25979
G1 X130.903 Y101.16 E.01689
G1 X124.557 Y94.814 E.28381
G1 X124.016 Y94.811 E.01711
G1 X130.9 Y101.695 E.30787
G1 X130.897 Y102.23 E.01692
G1 X123.475 Y94.808 E.33193
G1 X122.934 Y94.804 E.01711
G1 X130.894 Y102.765 E.35601
G1 X130.891 Y103.299 E.01689
G1 X122.393 Y94.801 E.38005
G1 X121.852 Y94.798 E.01711
G1 X130.888 Y103.834 E.40411
G1 X130.884 Y104.369 E.01692
M73 P5 R19
G1 X121.311 Y94.795 E.42815
G1 X120.77 Y94.792 E.01711
G1 X130.881 Y104.903 E.45219
G1 X130.878 Y105.438 E.01692
M73 Q5 S19
G1 X120.228 Y94.788 E.47629
G1 X119.687 Y94.785 E.01711
G1 X130.875 Y105.973 E.50035
G1 X130.872 Y106.507 E.01689
G1 X119.146 Y94.782 E.52439
G1 X118.605 Y94.779 E.01711
M73 P6 R19
M73 Q6 S19
G1 X130.869 Y107.042 E.54845
G1 X130.866 Y107.577 E.01692
G1 X118.578 Y95.289 E.54955
G1 X118.574 Y95.824 E.01692
G1 X130.862 Y108.111 E.54952
G1 X130.859 Y108.646 E.01692
G1 X118.571 Y96.358 E.54955
G1 X118.568 Y96.893 E.01692
G1 X130.856 Y109.181 E.54955
G1 X130.853 Y109.716 E.01692
G1 X118.565 Y97.428 E.54955
G1 X118.562 Y97.962 E.01689
G1 X130.85 Y110.25 E.54955
G1 X130.847 Y110.785 E.01692
G1 X118.559 Y98.497 E.54955
G1 X118.555 Y99.032 E.01692
G1 X130.843 Y111.32 E.54955
G1 X130.84 Y111.854 E.01689
G1 X118.552 Y99.566 E.54955
G1 X118.549 Y100.101 E.01692
G1 X130.837 Y112.389 E.54955
G1 X130.834 Y112.924 E.01692
G1 X118.546 Y100.636 E.54955
G1 X118.543 Y101.17 E.01689
G1 X130.831 Y113.458 E.54955
G1 X130.828 Y113.993 E.01692
G1 X118.54 Y101.705 E.54955
G1 X118.537 Y102.24 E.01692
M73 P7 R19
M73 Q7 S19
G1 X130.825 Y114.528 E.54955
G1 X130.821 Y115.063 E.01692
G1 X118.533 Y102.775 E.54955
G1 X118.53 Y103.309 E.01689
G1 X124.924 Y109.703 E.28595
G1 X124.802 Y109.681 E.00392
G1 X124.544 Y109.679 E.00816
G1 X124.387 Y109.704 E.00503
G1 X118.527 Y103.844 E.26207
G1 X118.524 Y104.379 E.01692
G1 X123.933 Y109.788 E.2419
G1 X123.763 Y109.844 E.00566
G1 X123.56 Y109.952 E.00727
G1 X118.521 Y104.913 E.22536
G1 X118.518 Y105.448 E.01692
G1 X123.21 Y110.14 E.20984
G1 X122.932 Y110.4 E.01204
G1 X118.514 Y105.983 E.19756
G1 X118.511 Y106.517 E.01689
G1 X122.668 Y110.674 E.18591
G1 X122.549 Y110.84 E.00646
G1 X122.465 Y111.009 E.00597
G1 X118.508 Y107.052 E.17697
G1 X118.505 Y107.587 E.01692
G1 X122.291 Y111.373 E.16932
G1 X122.229 Y111.565 E.00638
G1 X122.193 Y111.813 E.00792
G1 X118.502 Y108.121 E.16509
G1 X118.499 Y108.656 E.01692
G1 X122.339 Y112.497 E.17176
M204 S1000
;WIPE_START
G1 F8640
G1 X119.889 Y110.047 E-.8
;WIPE_END
G1 Z.6 F720
G1 X126.94 Y111.719 F10800
G1 Z.2 F720
G1 E.8 F2100
M204 S800
G1 F1200
G1 X130.818 Y115.597 E.17343
G1 X130.815 Y116.132 E.01692
G1 X127.153 Y112.47 E.16377
G1 X127.084 Y112.939 E.01499
G1 X130.812 Y116.667 E.16672
G1 X130.809 Y117.201 E.01689
G1 X126.93 Y113.322 E.17348
G1 X126.748 Y113.678 E.01264
G1 X130.781 Y117.711 E.18036
G1 X130.24 Y117.708 E.01711
G1 X126.504 Y113.972 E.16708
G1 X126.239 Y114.245 E.01203
G1 X129.699 Y117.705 E.15474
G1 X129.158 Y117.702 E.01711
G1 X125.915 Y114.459 E.14503
G1 X125.56 Y114.642 E.01263
G1 X128.617 Y117.698 E.13669
G1 X128.076 Y117.695 E.01711
G1 X125.132 Y114.752 E.13164
G1 X124.662 Y114.819 E.01501
G1 X127.535 Y117.692 E.12849
G1 X126.994 Y117.689 E.01711
G1 X124.032 Y114.727 E.13247
G1 X123.735 Y114.636 E.00982
G1 X123.255 Y114.379 E.01722
G1 X123.052 Y114.225 E.00806
G1 X122.637 Y113.787 E.01908
G1 X122.532 Y113.624 E.00613
G1 X122.293 Y113.13 E.01735
G1 X122.227 Y112.922 E.0069
G1 X118.496 Y109.191 E.16686
G1 X118.492 Y109.726 E.01692
G1 X126.453 Y117.686 E.35601
G1 X125.911 Y117.683 E.01714
G1 X118.489 Y110.26 E.33195
G1 X118.486 Y110.795 E.01692
