; generated by PrusaSlicer 2.7.1+MacOS-x64 on 2023-12-28 at 09:37:24 UTC

; 

; external perimeters extrusion width = 0.45mm
; perimeters extrusion width = 0.45mm
; infill extrusion width = 0.45mm
; solid infill extrusion width = 0.45mm
; top infill extrusion width = 0.40mm
; support material extrusion width = 0.35mm
; first layer extrusion width = 0.42mm

M73 P0 R31
M73 Q0 S31

; printing object IR-Sensor-Holder.stl id:0 copy 0
; stop printing object IR-Sensor-Holder.stl id:0 copy 0

;TYPE:Custom
M862.3 P "MK3S" ; printer model check
M862.1 P0.4 ; nozzle diameter check
M115 U3.10.0 ; tell printer latest fw version
G90 ; use absolute coordinates
M83 ; extruder relative mode
M104 S215 ; set extruder temp
M140 S60 ; set bed temp
M190 S60 ; wait for bed temp
M109 S215 ; wait for extruder temp
G28 W ; home all without mesh bed level
G80 ; mesh bed leveling
G1 Z0.2 F720
G1 Y-3 F1000 ; go outside print area
G92 E0
G1 X60 E9 F1000 ; intro line
G1 X100 E12.5 F1000 ; intro line
G92 E0
M221 S95

; Don't change E values below. Excessive value can damage the printer.

M907 E538 ; set extruder motor current
G21 ; set units to millimeters
G90 ; use absolute coordinates
M83 ; use relative distances for extrusion
M900 K0.05 ; Filament gcode LA 1.5
M900 K30 ; Filament gcode LA 1.0
M107
;LAYER_CHANGE
;Z:0.2
;HEIGHT:0.2
;BEFORE_LAYER_CHANGE
G92 E0.0
;0.2


G1 E-.8 F2100
G1 Z.2 F720
;AFTER_LAYER_CHANGE
;0.2
G1 X109.223 Y88.085 F10800
G1 Z.2 F720
G1 E.8 F2100
M204 S800
;TYPE:Skirt/Brim
;WIDTH:0.42
G1 F1200
G1 X110.254 Y87.028 E.0463
G1 X111.445 Y86.195 E.04557
G1 X120.989 Y81.087 E.33941
G1 X122.56 Y80.622 E.05137
G1 X123.694 Y80.469 E.03588
G1 X125.332 Y80.499 E.05137
G1 X127.348 Y80.95 E.06477
G1 X134.95 Y84 E.25682
G1 X135.721 Y84.391 E.02711
G1 X136.845 Y85.119 E.04199
G1 X140.319 Y88.553 E.15316
G1 X141.327 Y89.955 E.05414
G1 X141.61 Y90.511 E.01956
G1 X142.162 Y92.213 E.0561
G1 X142.319 Y93.702 E.04695
G1 X142.302 Y96.585 E.0904
G1 X142.145 Y98.041 E.04592
G1 X142.008 Y98.629 E.01893
G1 X134.538 Y119.838 E.70503
G1 X133.697 Y121.044 E.0461
G1 X131.924 Y121.677 E.05903
G1 X117.279 Y121.591 E.45919
G1 X115.864 Y121.19 E.04611
G1 X114.686 Y119.718 E.05911
G1 X107.688 Y99.009 E.68539
G1 X107.399 Y97.769 E.03992
G1 X107.314 Y96.281 E.04673
G1 X107.529 Y92.501 E.11871
G1 X107.733 Y91.114 E.04396
G1 X108.338 Y89.453 E.05543
G1 X109.191 Y88.135 E.04922
M204 S1000
G1 X109.506 Y88.341 F10800
M204 S800
G1 F1200
G1 X109.531 Y88.302 E.00145
G1 X110.515 Y87.301 E.04401
G1 X111.651 Y86.511 E.04338
G1 X121.105 Y81.445 E.3363
G1 X122.61 Y80.996 E.04924
G1 X123.745 Y80.842 E.03591
G1 X125.315 Y80.875 E.04924
G1 X127.208 Y81.3 E.06083
G1 X134.809 Y84.35 E.25679
G1 X135.544 Y84.724 E.02586
G1 X136.589 Y85.396 E.03896
G1 X140.051 Y88.819 E.15265
G1 X141.012 Y90.163 E.0518
G1 X141.256 Y90.643 E.01688
G1 X141.788 Y92.258 E.05331
G1 X141.942 Y93.7 E.04547
G1 X141.925 Y96.583 E.0904
G1 X141.771 Y97.996 E.04457
G1 X141.653 Y98.504 E.01635
G1 X134.182 Y119.713 E.70504
G1 X133.379 Y120.815 E.04275
G1 X131.926 Y121.3 E.04803
G1 X117.282 Y121.214 E.45916
G1 X115.977 Y120.814 E.0428
G1 X115.044 Y119.598 E.04806
G1 X108.046 Y98.888 E.68542
G1 X107.773 Y97.723 E.03752
M73 Q1 S31
G1 X107.691 Y96.281 E.04529
G1 X107.906 Y92.523 E.11802
M73 P1 R31
G1 X108.106 Y91.172 E.04282
G1 X108.687 Y89.597 E.05264
G1 X109.473 Y88.391 E.04514
M204 S1000
; printing object IR-Sensor-Holder.stl id:0 copy 0
;WIPE_START
G1 F8640
G1 X109.506 Y88.341 E-.01383
G1 X109.531 Y88.302 E-.0107
G1 X110.515 Y87.301 E-.32411
G1 X111.651 Y86.511 E-.3195
G1 X112.154 Y86.241 E-.13186
;WIPE_END
G1 Z.6 F720
G1 X124.669 Y83.226 F10800
G1 Z.2 F720
G1 E.8 F2100
M204 S800
;TYPE:Support material
G1 F1200
G1 X125.207 Y83.25 E.01689
G1 X126.323 Y83.506 E.0359
G1 X127.374 Y83.957 E.03586
G1 X128.328 Y84.589 E.03588
G1 X129.153 Y85.381 E.03586
G1 X129.822 Y86.308 E.03584
G1 X130.016 Y86.712 E.01405
G1 X130.56 Y86.453 E.01889
G1 X131.691 Y86.217 E.03623
G1 X132.843 Y86.256 E.03614
G1 X133.924 Y86.556 E.03518
G1 X134.43 Y86.824 E.01795
G1 X134.975 Y87.141 E.01977
G1 X135.802 Y87.905 E.0353
G1 X136.438 Y88.863 E.03605
G1 X136.564 Y89.209 E.01155
G1 X137.52 Y89.728 E.03411
G1 X138.361 Y90.491 E.0356
G1 X139.03 Y91.475 E.03731
G1 X139.428 Y92.541 E.03568
G1 X139.565 Y93.686 E.03616
G1 X139.428 Y94.831 E.03616
G1 X139.308 Y95.15 E.01069
G1 X139.411 Y95.424 E.00918
G1 X139.548 Y96.569 E.03616
G1 X139.411 Y97.714 E.03616
G1 X139.007 Y98.795 E.03618
G1 X138.359 Y99.751 E.03621
G1 X137.503 Y100.527 E.03623
G1 X136.486 Y101.08 E.0363
G1 X135.413 Y101.363 E.03479
G1 X134.165 Y101.388 E.03914
G1 X133.073 Y101.142 E.0351
G1 X132.527 Y100.871 E.01911
G1 X132.57 Y93.478 E.23181
G1 X132.291 Y93.195 E.01246
M73 P1 R30
G1 X117.249 Y93.106 E.47164
G1 X116.966 Y93.385 E.01246
G1 X116.921 Y100.982 E.2382
G1 X115.633 Y101.393 E.04239
G1 X114.493 Y101.433 E.03577
G1 X113.376 Y101.206 E.03574
G1 X112.389 Y100.746 E.03414
G1 X111.865 Y100.359 E.02042
G1 X111.412 Y99.966 E.0188
G1 X110.746 Y99.113 E.03393
G1 X110.298 Y98.127 E.03396
G1 X110.068 Y96.914 E.03871
G1 X110.132 Y95.763 E.03614
M73 Q1 S30
G1 X110.298 Y95.068 E.0224
G1 X110.558 Y94.495 E.01973
G1 X110.343 Y93.746 E.02443
G1 X110.279 Y92.661 E.03408
G1 X110.454 Y91.54 E.03557
G1 X110.882 Y90.509 E.035
G1 X111.472 Y89.675 E.03203
G1 X112.158 Y89.018 E.02978
G1 X112.95 Y88.502 E.02964
G1 X113.884 Y88.124 E.03159
G1 X114.804 Y87.98 E.0292
G1 X115.772 Y87.966 E.03035
G1 X116.589 Y88.163 E.02635
G1 X117.149 Y88.346 E.01847
G1 X118.042 Y88.791 E.03128
G1 X118.204 Y87.881 E.02898
G1 X118.604 Y86.809 E.03588
G1 X119.188 Y85.826 E.03585
G1 X119.94 Y84.963 E.03589
G1 X120.833 Y84.249 E.03585
G1 X121.841 Y83.706 E.0359
G1 X122.929 Y83.352 E.03587
G1 X124.064 Y83.198 E.03591
G1 X124.612 Y83.223 E.0172
M204 S1000
G1 X139.009 Y98.304 F10800
M204 S800
G1 F1200
G1 X139.009 Y92.39 E.18543
G1 X138.59 Y91.426 E.03296
G1 X138.59 Y98.805 E.23136
G1 X138.171 Y99.423 E.02341
G1 X138.171 Y90.811 E.27002
G1 X137.752 Y90.397 E.01847
G1 X137.752 Y99.843 E.29617
G1 X137.333 Y100.223 E.01774
G1 X137.333 Y90.017 E.32
G1 X136.914 Y89.785 E.01502
G1 X136.914 Y100.461 E.33474
G1 X136.495 Y100.688 E.01494
G1 X136.495 Y89.558 E.34897
G1 X136.29 Y89.446 E.00732
G1 X136.076 Y88.931 E.01749
G1 X136.076 Y100.837 E.3733
G1 X135.657 Y100.947 E.01358
G1 X135.657 Y88.301 E.39651
G1 X135.238 Y87.847 E.01937
G1 X135.238 Y101.032 E.41341
G1 X134.819 Y101.055 E.01316
G1 X134.819 Y87.459 E.42629
G1 X134.4 Y87.2 E.01544
G1 X134.4 Y101.051 E.43429
G1 X133.981 Y100.999 E.01324
G1 X133.981 Y86.971 E.43984
G1 X133.562 Y86.808 E.0141
G1 X133.562 Y100.905 E.442
G1 X133.143 Y100.799 E.01355
G1 X133.143 Y86.691 E.44235
G1 X132.724 Y86.591 E.01351
G1 X132.724 Y93.151 E.20568
G1 X132.433 Y92.856 E.01299
G1 X132.306 Y92.855 E.00398
G1 X132.306 Y86.577 E.19684
G1 X131.887 Y86.563 E.01314
G1 X131.887 Y92.853 E.19722
G1 X131.468 Y92.85 E.01314
G1 X131.468 Y86.611 E.19562
G1 X131.049 Y86.698 E.01342
G1 X131.049 Y92.848 E.19283
G1 X130.63 Y92.846 E.01314
G1 X130.63 Y86.796 E.18969
G1 X130.211 Y86.995 E.01454
G1 X130.211 Y92.843 E.18336
G1 X129.792 Y92.841 E.01314
G1 X129.792 Y87.03 E.1822
G1 X129.373 Y86.265 E.02735
G1 X129.373 Y92.838 E.20609
G1 X128.954 Y92.836 E.01314
G1 X128.954 Y85.685 E.22421
G1 X128.535 Y85.258 E.01876
M73 P2 R30
M73 Q2 S30
G1 X128.535 Y92.833 E.23751
G1 X128.116 Y92.831 E.01314
G1 X128.116 Y84.856 E.25005
G1 X127.697 Y84.578 E.01577
G1 X127.697 Y92.828 E.25867
G1 X127.278 Y92.826 E.01314
G1 X127.278 Y84.3 E.26733
G1 X126.859 Y84.105 E.01449
G1 X126.859 Y92.823 E.27335
G1 X126.44 Y92.821 E.01314
G1 X126.44 Y83.925 E.27893
G1 X126.021 Y83.785 E.01385
G1 X126.021 Y92.818 E.28322
G1 X125.602 Y92.816 E.01314
G1 X125.602 Y83.689 E.28617
G1 X125.183 Y83.593 E.01348
G1 X125.183 Y92.813 E.28909
G1 X124.764 Y92.811 E.01314
G1 X124.764 Y83.57 E.28975
G1 X124.345 Y83.551 E.01315
G1 X124.345 Y92.808 E.29025
G1 X123.926 Y92.806 E.01314
G1 X123.926 Y83.559 E.28993
G1 X123.507 Y83.616 E.01326
G1 X123.507 Y92.803 E.28805
G1 X123.088 Y92.801 E.01314
G1 X123.088 Y83.673 E.2862
G1 X122.669 Y83.793 E.01367
G1 X122.669 Y92.799 E.28238
G1 X122.25 Y92.796 E.01314
G1 X122.25 Y83.929 E.27802
G1 X121.831 Y84.097 E.01415
G1 X121.831 Y92.794 E.27269
G1 X121.412 Y92.791 E.01314
G1 X121.412 Y84.322 E.26554
G1 X120.993 Y84.556 E.01505
G1 X120.993 Y92.789 E.25814
G1 X120.574 Y92.786 E.01314
G1 X120.574 Y84.891 E.24754
G1 X120.155 Y85.233 E.01696
G1 X120.155 Y92.784 E.23676
G1 X119.736 Y92.781 E.01314
G1 X119.736 Y85.714 E.22158
G1 X119.317 Y86.273 E.0219
G1 X119.317 Y92.779 E.20399
G1 X118.898 Y92.776 E.01314
G1 X118.898 Y86.991 E.18138
G1 X118.479 Y88.271 E.04223
G1 X118.479 Y92.774 E.14119
G1 X118.06 Y92.771 E.01314
G1 X118.06 Y89.18 E.11259
G1 X117.641 Y88.971 E.01468
G1 X117.641 Y92.769 E.11908
G1 X117.222 Y92.766 E.01314
G1 X117.222 Y88.762 E.12554
G1 X116.803 Y88.59 E.0142
G1 X116.803 Y93.069 E.14044
G1 X116.627 Y93.243 E.00776
G1 X116.583 Y100.777 E.23623
G1 X116.384 Y100.832 E.00647
G1 X116.384 Y88.463 E.38782
G1 X115.965 Y88.362 E.01351
G1 X115.965 Y100.948 E.39463
G1 X115.546 Y101.057 E.01357
G1 X115.546 Y88.308 E.39974
G1 X115.127 Y88.314 E.01314
G1 X115.127 Y101.071 E.39999
G1 X114.708 Y101.086 E.01315
G1 X114.708 Y88.338 E.3997
G1 X114.289 Y88.404 E.0133
G1 X114.289 Y101.045 E.39635
G1 X113.871 Y100.96 E.01337
G1 X113.871 Y88.495 E.39083
G1 X113.452 Y88.665 E.01418
G1 X113.452 Y100.867 E.38259
G1 X113.033 Y100.672 E.01449
G1 X113.033 Y88.853 E.37058
G1 X112.614 Y89.126 E.01568
M73 Q3 S30
G1 X112.614 Y100.476 E.35587
G1 X112.195 Y100.181 E.01607
M73 P3 R30
G1 X112.195 Y89.453 E.33637
G1 X111.776 Y89.854 E.01818
G1 X111.776 Y99.833 E.31288
G1 X111.357 Y99.344 E.02019
G1 X111.357 Y90.426 E.27962
G1 X110.938 Y91.26 E.02926
G1 X110.938 Y98.715 E.23375
G1 X110.62 Y98.016 E.02408
G1 X110.519 Y97.591 E.0137
G1 X110.519 Y94.992 E.08149
M204 S1000
;WIPE_START
G1 F8640
G1 X110.519 Y97.591 E-.60012
G1 X110.62 Y98.016 E-.10087
G1 X110.797 Y98.406 E-.09901
;WIPE_END
G1 Z.6 F720
G1 X118.227 Y94.379 F10800
G1 Z.2 F720
G1 E.8 F2100
M204 S800
;TYPE:Perimeter
;WIDTH:0.419999
G1 F1200
G1 X131.298 Y94.456 E.40984
G1 X131.259 Y100.991 E.2049
G1 X131.158 Y118.131 E.53742
G1 X118.087 Y118.054 E.40984
G1 X118.227 Y94.439 E.74044
M204 S1000
G1 X117.852 Y94 F10800
M204 S800
;TYPE:External perimeter
G1 F1200
G1 X131.677 Y94.081 E.43348
G1 X131.636 Y100.993 E.21672
G1 X131.533 Y118.511 E.54927
G1 X117.708 Y118.429 E.43348
G1 X117.852 Y94.06 E.76408
M204 S1000
;WIPE_START
G1 F8640
G1 X117.852 Y94 E-.01385
G1 X121.257 Y94.02 E-.78615
;WIPE_END
G1 Z.6 F720
G1 X124.672 Y110.027 F10800
G1 Z.2 F720
G1 E.8 F2100
M204 S800
;TYPE:Perimeter
G1 F1200
G1 X125.285 Y110.104 E.01937
G1 X125.928 Y110.414 E.02238
G1 X126.442 Y110.912 E.02244
G1 X126.777 Y111.542 E.02237
G1 X126.908 Y112.242 E.02233
G1 X126.82 Y112.95 E.02237
G1 X126.527 Y113.596 E.02224
G1 X126.05 Y114.123 E.02229
G1 X125.432 Y114.476 E.02232
G1 X124.735 Y114.616 E.02229
G1 X124.027 Y114.525 E.02238
G1 X123.385 Y114.216 E.02234
G1 X122.871 Y113.718 E.02244
G1 X122.536 Y113.088 E.02237
G1 X122.407 Y112.387 E.02235
G1 X122.493 Y111.681 E.0223
G1 X122.786 Y111.034 E.02227
G1 X123.263 Y110.507 E.02229
G1 X123.881 Y110.154 E.02232
G1 X124.579 Y110.015 E.02231
G1 X124.613 Y110.019 E.00107
M204 S1000
G1 X124.638 Y110.387 F10800
M204 S800
;TYPE:External perimeter
G1 F1200
G1 X125.222 Y110.476 E.01852
G1 X125.751 Y110.747 E.01864
G1 X126.169 Y111.172 E.01869
G1 X126.438 Y111.706 E.01875
G1 X126.535 Y112.297 E.01878
G1 X126.448 Y112.89 E.01879
G1 X126.19 Y113.428 E.01871
G1 X125.781 Y113.86 E.01865
G1 X125.259 Y114.141 E.01859
G1 X124.676 Y114.244 E.01856
G1 X124.09 Y114.154 E.01859
G1 X123.562 Y113.883 E.01861
G1 X123.144 Y113.458 E.01869
G1 X122.875 Y112.923 E.01878
G1 X122.78 Y112.332 E.01877
G1 X122.865 Y111.74 E.01875
G1 X123.124 Y111.202 E.01872
G1 X123.533 Y110.77 E.01865
G1 X124.055 Y110.488 E.0186
G1 X124.579 Y110.398 E.01667
M204 S1000
;WIPE_START
G1 F8640
G1 X124.638 Y110.387 E-.01386
G1 X125.222 Y110.476 E-.1364
G1 X125.751 Y110.747 E-.13724
G1 X126.169 Y111.172 E-.13764
G1 X126.438 Y111.706 E-.13806
G1 X126.535 Y112.297 E-.13829
G1 X126.473 Y112.719 E-.09851
;WIPE_END
G1 Z.6 F720
G1 X131.179 Y95.33 F10800
G1 Z.2 F720
G1 E.8 F2100
M204 S800
;TYPE:Solid infill
;WIDTH:0.421757
G1 F1200
G1 X130.584 Y94.735 E.02651
G1 X130.045 Y94.731 E.01698
G1 X131.007 Y95.694 E.04288
G1 X131.004 Y96.226 E.01676
G1 X129.506 Y94.728 E.06673
G1 X128.967 Y94.725 E.01698
G1 X131.001 Y96.759 E.09061
G1 X130.998 Y97.292 E.01679
G1 X128.428 Y94.722 E.11449
G1 X127.889 Y94.719 E.01698
G1 X130.995 Y97.824 E.13834
G1 X130.992 Y98.357 E.01679
G1 X127.35 Y94.715 E.16225
G1 X126.811 Y94.712 E.01698
G1 X130.989 Y98.889 E.1861
G1 X130.985 Y99.422 E.01679
G1 X126.272 Y94.709 E.20996
G1 X125.734 Y94.706 E.01695
G1 X130.982 Y99.955 E.23381
G1 X130.979 Y100.487 E.01676
G1 X125.195 Y94.703 E.25767
G1 X124.656 Y94.7 E.01698
G1 X130.976 Y101.02 E.28155
G1 X130.973 Y101.553 E.01679
G1 X124.117 Y94.696 E.30545
G1 X123.578 Y94.693 E.01698
G1 X130.97 Y102.085 E.3293
G1 X130.967 Y102.618 E.01679
G1 X123.039 Y94.69 E.35318
G1 X122.5 Y94.687 E.01698
G1 X130.963 Y103.15 E.37701
G1 X130.96 Y103.683 E.01679
M73 P4 R30
M73 Q4 S30
G1 X121.961 Y94.684 E.40089
G1 X121.422 Y94.68 E.01698
G1 X130.957 Y104.216 E.42479
G1 X130.954 Y104.748 E.01676
G1 X120.883 Y94.677 E.44865
G1 X120.344 Y94.674 E.01698
G1 X130.951 Y105.281 E.47252
G1 X130.948 Y105.813 E.01676
G1 X119.805 Y94.671 E.49638
G1 X119.266 Y94.668 E.01698
G1 X130.945 Y106.346 E.52026
G1 X130.941 Y106.879 E.01679
G1 X118.727 Y94.665 E.54411
G1 X118.508 Y94.663 E.0069
G1 X118.506 Y94.979 E.00995
G1 X130.938 Y107.411 E.55382
G1 X130.935 Y107.944 E.01679
M73 P4 R29
G1 X118.503 Y95.512 E.55382
G1 X118.5 Y96.044 E.01676
G1 X130.932 Y108.477 E.55385
G1 X130.929 Y109.009 E.01676
M73 Q4 S29
G1 X118.497 Y96.577 E.55382
G1 X118.494 Y97.11 E.01679
G1 X130.926 Y109.542 E.55382
G1 X130.923 Y110.074 E.01676
G1 X118.491 Y97.642 E.55382
G1 X118.487 Y98.175 E.01679
G1 X130.919 Y110.607 E.55382
G1 X130.916 Y111.14 E.01679
G1 X118.484 Y98.708 E.55382
G1 X118.481 Y99.24 E.01676
G1 X130.913 Y111.672 E.55382
G1 X130.91 Y112.205 E.01679
G1 X118.478 Y99.773 E.55382
G1 X118.475 Y100.305 E.01676
G1 X130.907 Y112.737 E.55382
G1 X130.904 Y113.27 E.01679
G1 X118.472 Y100.838 E.55382
G1 X118.469 Y101.371 E.01679
G1 X130.901 Y113.803 E.55382
G1 X130.898 Y114.335 E.01676
G1 X118.465 Y101.903 E.55385
G1 X118.462 Y102.436 E.01679
G1 X130.894 Y114.868 E.55382
M73 Q5 S29
G1 X130.891 Y115.401 E.01679
M73 P5 R29
G1 X127.088 Y111.598 E.16942
G1 X127.035 Y111.425 E.0057
G1 X126.793 Y110.926 E.01747
G1 X126.652 Y110.723 E.00779
G1 X126.271 Y110.323 E.0174
G1 X126.068 Y110.168 E.00805
G1 X125.458 Y109.856 E.02158
G1 X125.321 Y109.831 E.00439
G1 X118.459 Y102.968 E.30571
G1 X118.456 Y103.501 E.01679
G1 X124.69 Y109.735 E.27771
G1 X124.543 Y109.734 E.00463
G1 X124.206 Y109.787 E.01075
G1 X118.453 Y104.034 E.25629
G1 X118.45 Y104.566 E.01676
G1 X123.776 Y109.893 E.23729
G1 X123.425 Y110.077 E.01248
G1 X118.447 Y105.099 E.22176
G1 X118.443 Y105.632 E.01679
G1 X123.097 Y110.285 E.20731
G1 X122.828 Y110.552 E.01194
G1 X118.44 Y106.164 E.19548
G1 X118.437 Y106.697 E.01679
G1 X122.58 Y110.84 E.18456
G1 X122.393 Y111.189 E.01247
G1 X118.434 Y107.229 E.17639
G1 X118.431 Y107.762 E.01679
G1 X122.235 Y111.566 E.16946
G1 X122.157 Y112.024 E.01463
G1 X118.428 Y108.295 E.16612
G1 X118.425 Y108.827 E.01676
G1 X122.349 Y112.751 E.17481
M204 S1000
;WIPE_START
G1 F8640
G1 X119.899 Y110.301 E-.8
;WIPE_END
G1 Z.6 F720
G1 X126.986 Y112.031 F10800
G1 Z.2 F720
G1 E.8 F2100
M204 S800
G1 F1200
G1 X130.888 Y115.933 E.17383
G1 X130.885 Y116.466 E.01679
G1 X127.14 Y112.721 E.16683
G1 X127.096 Y113.017 E.00943
G1 X127.047 Y113.164 E.00488
G1 X130.882 Y116.998 E.17082
G1 X130.879 Y117.531 E.01679
G1 X126.877 Y113.529 E.17828
G1 X126.683 Y113.871 E.01239
G1 X130.657 Y117.846 E.17706
G1 X130.119 Y117.842 E.01695
G1 X126.422 Y114.146 E.16467
G1 X126.248 Y114.326 E.00789
G1 X126.144 Y114.403 E.00408
G1 X129.58 Y117.839 E.15307
G1 X129.041 Y117.836 E.01698
